source/assets/images/icons/house.svg

<svg fill="none" height="80" viewBox="0 0 80 80" width="80" xmlns="http://www.w3.org/2000/svg"><path d="m73.0886 37.9266v-1.4687h2.8509c.7157 0 1.2959-.5802 1.2959-1.2959v-4.2333h1.4687c.7157 0 1.2959-.5802 1.2959-1.2959v-4.1468c0-.465-.2492-.8945-.653-1.1252l-38.7041-22.11664c-.3984-.22756-.8876-.22756-1.2858 0l-38.704141 22.11664c-.403801.2307-.652959.66-.652959 1.1252v4.1468c0 .7157.580216 1.2959 1.2959 1.2959h1.46868v4.2333c0 .7157.58021 1.2959 1.2959 1.2959h2.85097v1.4687c0 1.0068.55896 1.8847 1.38229 2.3421v24.0078h-4.23326c-.71569 0-1.2959.5802-1.2959 1.2959v4.2332h-1.46868c-.715684 0-1.2959.5802-1.2959 1.2959v5.5292c0 .7157.580216 1.2959 1.2959 1.2959h77.4082c.7157 0 1.2959-.5802 1.2959-1.2959v-5.5292c0-.7157-.5802-1.2959-1.2959-1.2959h-1.4687v-4.2332c0-.7157-.5802-1.2959-1.2959-1.2959h-4.2332v-24.0078c.8233-.4574 1.3823-1.3353 1.3823-2.3421zm-2.5918 0c0 .0477-.0387.0864-.0864.0864h-5.5292c-.0477 0-.0864-.0387-.0864-.0864v-1.4687h5.702zm-12.6134 26.3499v-24.0078c.8233-.4574 1.3823-1.3353 1.3823-2.3421v-1.4687h2.9373v1.4687c0 1.0068.559 1.8847 1.3823 2.3421v24.0078zm-5.5292 0v-23.6717h2.9374v23.6717zm-8.2937 0v-24.0078c.8233-.4574 1.3823-1.3353 1.3823-2.3421v-1.4687h2.9373v1.4687c0 1.0068.559 1.8847 1.3823 2.3421v24.0078zm-5.5292 0v-23.6717h2.9374v23.6717zm-8.2937 0v-24.0078c.8233-.4574 1.3823-1.3353 1.3823-2.3421v-1.4687h2.9373v1.4687c0 1.0068.559 1.8847 1.3823 2.3421v24.0078zm-5.5292 0v-23.6717h2.9374v23.6717zm-8.2937 0v-24.0078c.8233-.4574 1.3823-1.3353 1.3823-2.3421v-1.4687h2.9373v1.4687c0 1.0068.559 1.8847 1.3823 2.3421v24.0078zm12.6134-27.8186v1.4687c0 .0477-.0387.0864-.0864.0864h-5.5292c-.0477 0-.0864-.0387-.0864-.0864v-1.4687zm13.8229 0v1.4687c0 .0477-.0387.0864-.0864.0864h-5.5292c-.0477 0-.0864-.0387-.0864-.0864v-1.4687zm13.8229 0v1.4687c0 .0477-.0387.0864-.0864.0864h-5.5292c-.0477 0-.0864-.0387-.0864-.0864v-1.4687zm-54.08211-10.22 37.40821-21.37603 37.4082 21.37603v2.099h-74.81641zm2.76458 4.6908h69.28723v2.9374h-69.28723zm9.84883 5.5292v1.4687c0 .0477-.0387.0864-.0864.0864h-5.52917c-.04769 0-.08639-.0387-.08639-.0864v-1.4687zm-4.3197 4.1469h2.9374v23.6717h-2.9374zm66.5227 34.73h-74.81641v-2.9374h74.81641zm-2.7646-5.5292h-69.28723v-2.9373h69.28723zm-8.4665-5.5291v-23.6717h2.9374v23.6717z" fill="#000"/></svg>

<svg width="80" height="80" viewBox="0 0 80 80" fill="none" xmlns="http://www.w3.org/2000/svg">
<path d="M73.0886 37.9266V36.4579H75.9395C76.6552 36.4579 77.2354 35.8777 77.2354 35.162V30.9287H78.7041C79.4198 30.9287 80 30.3485 80 29.6328V25.486C80 25.021 79.7508 24.5915 79.347 24.3608L40.6429 2.24416C40.2445 2.0166 39.7553 2.0166 39.3571 2.24416L0.652959 24.3608C0.249158 24.5915 0 25.0208 0 25.486V29.6328C0 30.3485 0.580216 30.9287 1.2959 30.9287H2.76458V35.162C2.76458 35.8777 3.34479 36.4579 4.06048 36.4579H6.91145V37.9266C6.91145 38.9334 7.47041 39.8113 8.29374 40.2687V64.2765H4.06048C3.34479 64.2765 2.76458 64.8567 2.76458 65.5724V69.8056H1.2959C0.580216 69.8056 0 70.3858 0 71.1015V76.6307C0 77.3464 0.580216 77.9266 1.2959 77.9266H78.7041C79.4198 77.9266 80 77.3464 80 76.6307V71.1015C80 70.3858 79.4198 69.8056 78.7041 69.8056H77.2354V65.5724C77.2354 64.8567 76.6552 64.2765 75.9395 64.2765H71.7063V40.2687C72.5296 39.8113 73.0886 38.9334 73.0886 37.9266ZM70.4968 37.9266C70.4968 37.9743 70.4581 38.013 70.4104 38.013H64.8812C64.8335 38.013 64.7948 37.9743 64.7948 37.9266V36.4579H70.4968V37.9266ZM57.8834 64.2765V40.2687C58.7067 39.8113 59.2657 38.9334 59.2657 37.9266V36.4579H62.203V37.9266C62.203 38.9334 62.762 39.8113 63.5853 40.2687V64.2765H57.8834ZM52.3542 64.2765V40.6048H55.2916V64.2765H52.3542ZM44.0605 64.2765V40.2687C44.8838 39.8113 45.4428 38.9334 45.4428 37.9266V36.4579H48.3801V37.9266C48.3801 38.9334 48.9391 39.8113 49.7624 40.2687V64.2765H44.0605ZM38.5313 64.2765V40.6048H41.4687V64.2765H38.5313ZM30.2376 64.2765V40.2687C31.0609 39.8113 31.6199 38.9334 31.6199 37.9266V36.4579H34.5572V37.9266C34.5572 38.9334 35.1162 39.8113 35.9395 40.2687V64.2765H30.2376ZM24.7084 64.2765V40.6048H27.6458V64.2765H24.7084ZM16.4147 64.2765V40.2687C17.238 39.8113 17.797 38.9334 17.797 37.9266V36.4579H20.7343V37.9266C20.7343 38.9334 21.2933 39.8113 22.1166 40.2687V64.2765H16.4147ZM29.0281 36.4579V37.9266C29.0281 37.9743 28.9894 38.013 28.9417 38.013H23.4125C23.3648 38.013 23.3261 37.9743 23.3261 37.9266V36.4579H29.0281ZM42.851 36.4579V37.9266C42.851 37.9743 42.8123 38.013 42.7646 38.013H37.2354C37.1877 38.013 37.149 37.9743 37.149 37.9266V36.4579H42.851ZM56.6739 36.4579V37.9266C56.6739 37.9743 56.6352 38.013 56.5875 38.013H51.0583C51.0106 38.013 50.9719 37.9743 50.9719 37.9266V36.4579H56.6739ZM2.59179 26.2379L40 4.86187L77.4082 26.2379V28.3369H2.59179V26.2379ZM5.35637 30.9287H74.6436V33.8661H5.35637V30.9287ZM15.2052 36.4579V37.9266C15.2052 37.9743 15.1665 38.013 15.1188 38.013H9.58963C9.54194 38.013 9.50324 37.9743 9.50324 37.9266V36.4579H15.2052ZM10.8855 40.6048H13.8229V64.2765H10.8855V40.6048ZM77.4082 75.3348H2.59179V72.3974H77.4082V75.3348ZM74.6436 69.8056H5.35637V66.8683H74.6436V69.8056ZM66.1771 64.2765V40.6048H69.1145V64.2765H66.1771Z" fill="black"/>
</svg>
